X:1
T:Title
L:1/8
Q:1/4=100
M:2/4
K:Bb
V:1 treble nm="Grand Piano"
V:1
 F4 | E4 | D4- | D2 G2 | GF GA | GF FE | E4- | E2 F2 | F=E FG | FE ED | D4- | D4 | F4 | E4 | D4- | %15
w: ????~????|||||||||||||||
 D2 G2 | GF GA | GF FE | E4- | E2 F2 | F=E FG | FE ED | D4 | z2 AB | c2 B2 | A4- | A2 A2 | B2 c2 | %28
w: |||||||||||||
 d2 d2 | B2 A2 | G3 G | A2 B2 | c2 c2 | A2 G2 | F3 F | G2 A2 | B2 GF | E2 FE | D4 |] %39
w: |||||||||||

